X: 7234
T: Clancy's
R: jig
M: 6/8
K: Adorian
|:eAA efg|eAA edB|eAA efg|edB dgf|eAA efg|eAA edB|GBd g2e|1 fdB ABd:|2 fdc BcA||
GBd g3|ede gdB|GBd g2e|fdc BcA|GBd g3|aba aga|bc'b aga|bge dBA|GBd gdd|edd gdd|GBd g2e|fdc BcA|GBd g3|aba aga|bgb aga|bge dBd|

